icons/op-loading2-24.svg

<svg width="24" height="24" viewBox="0 0 24 24" fill="none" xmlns="http://www.w3.org/2000/svg">
<path d="M17.1243 5.59375H18V4H6V5.59375H7.03784C7.16757 8.59375 8.33514 10.5625 10.3135 11.2188V12.875C8.33514 13.5312 7.2 15.4688 7.03784 18.4062H6V20H18V18.4062H17.1243C16.9946 15.4688 15.827 13.5312 13.8811 12.875V11.2188C15.8595 10.5625 16.9946 8.59375 17.1243 5.59375ZM13.3622 13.5625C15.5676 14.0938 16.2162 16.375 16.3135 18.4062H15.5027L14.0108 16.75L12.1622 14.6562L10.3135 16.75L8.82162 18.4062H7.88108C7.97838 16.375 8.62703 14.0938 10.8324 13.5625L11.1243 13.5V10.5938L10.8324 10.5312C8.59459 10 7.97838 7.65625 7.88108 5.59375H16.3135C16.2162 7.65625 15.6 10 13.3622 10.5312L13.0378 10.5938V13.5L13.3622 13.5625ZM13.9459 8.84375H10.5081L11.3838 9.8125L12.227 10.75L13.0703 9.8125L13.9459 8.84375Z" fill="black"/>
</svg>

<svg xmlns="http://www.w3.org/2000/svg" width="24" height="24" viewBox="0 0 24 24"><path d="M17.124 5.594H18V4H6v1.594h1.038c.13 3 1.297 4.968 3.275 5.625v1.656c-1.978.656-3.113 2.594-3.275 5.531H6V20h12v-1.594h-.876c-.129-2.937-1.297-4.875-3.243-5.531v-1.656c1.979-.657 3.114-2.625 3.243-5.625Zm-3.762 7.968c2.206.532 2.854 2.813 2.952 4.844h-.811l-1.492-1.656-1.849-2.094-1.849 2.094-1.491 1.656h-.941c.097-2.031.746-4.312 2.951-4.844l.292-.062v-2.906l-.292-.063C8.595 10 7.978 7.656 7.881 5.594h8.433c-.098 2.062-.714 4.406-2.952 4.937l-.324.063V13.5l.324.062Zm.584-4.718h-3.438l.876.968.843.938.843-.938.876-.968Z"/></svg>
